X:1
T:The Loss of the Ramillies
M:4/4
L:1/8
K:G
 D2| G3 A B2A-G| F2 E2 D3 D| A2 A3/2 A/2 A2 GG| F2 E2 D2| D2| d3 e c3 d|\
 B2 c2 A2 Bc| d2 G3/2 G/2G-A Bc| B2 AA G2| Bc| d3 e c3 d| B3/2 B/2 cc A4|\
 d2 G3/2 G/2 B2 A G/2G/2| AGG-F G2||
